dist/svg/u1F33F.svg

<?xml version="1.0" encoding="UTF-8"?><svg id="Layer_1" xmlns="http://www.w3.org/2000/svg" viewBox="0 0 40 40"><rect y="0" width="40" height="40" transform="translate(40 40) rotate(-180)" style="fill:none;"/><g><path d="M11.01855,37.4082c-.25586,0-.51172-.09766-.70703-.29297-2.60254-2.60254-1.7627-7.52051,1.91309-11.19629L31.40039,6.74219c.39062-.39062,1.02344-.39062,1.41406,0s.39062,1.02344,0,1.41406L13.63867,27.33301c-2.78613,2.78613-3.66211,6.61816-1.91309,8.36816,.39062,.39062,.39062,1.02344,0,1.41406-.19531,.19531-.45117,.29297-.70703,.29297Z" style="fill:#23b169;"/><g><path d="M27.47068,34.59311c-.00261-2.8722-1.85548-5.93778-5.01596-7.76249-3.16048-1.82472-6.74178-1.89658-9.23061-.46282,.00275,2.87222,1.85559,5.93784,5.01607,7.76256s6.7418,1.89654,9.2305,.46276Z" style="fill:#68c76f;"/><path d="M4.9988,12.12123c2.8722,.00261,5.93778,1.85548,7.76249,5.01596,1.82472,3.16048,1.89658,6.74178,.46282,9.23061-2.87222-.00275-5.93784-1.85559-7.76256-5.01607-1.82472-3.16048-1.89654-6.7418-.46276-9.2305Z" style="fill:#68c76f;"/></g><g><path d="M31.52168,24.18843c-.59672-2.21893-2.66325-4.20417-5.4833-4.95981-2.82005-.75564-5.60234-.06964-7.22869,1.55361,.59683,2.21891,2.66335,4.2042,5.4834,4.95984s5.60235,.06961,7.2286-1.55363Z" style="fill:#68c76f;"/><path d="M15.40348,8.07023c2.21893,.59672,4.20417,2.66325,4.95981,5.4833,.75564,2.82005,.06964,5.60234-1.55361,7.22869-2.21891-.59683-4.2042-2.66335-4.95984-5.4834-.75564-2.82005-.06961-5.60235,1.55363-7.2286Z" style="fill:#68c76f;"/></g><path d="M34.86339,15.2569c-.92055-1.5911-2.9285-2.6973-5.26413-2.6973-2.33563,0-4.34358,1.10618-5.26422,2.69727,.92063,1.59107,2.92858,2.6973,5.26421,2.6973,2.33563,0,4.34358-1.10621,5.26414-2.69727Z" style="fill:#68c76f;"/><path d="M24.33501,4.72852c1.5911,.92055,2.6973,2.9285,2.6973,5.26413,0,2.33563-1.10618,4.34358-2.69727,5.26422-1.59107-.92063-2.6973-2.92858-2.6973-5.26421,0-2.33563,1.10621-4.34358,2.69727-5.26414Z" style="fill:#68c76f;"/><path d="M35.84739,3.74456c-1.77601-.47415-3.97804,.16348-5.62958,1.81502s-2.28919,3.85356-1.81511,5.62963c1.77604,.47407,3.9781-.16354,5.62964-1.81508s2.28917-3.85358,1.81505-5.62957Z" style="fill:#68c76f;"/></g></svg>

<svg id="Layer_1" data-name="Layer 1" xmlns="http://www.w3.org/2000/svg" viewBox="0 0 40 40"><defs><style>.cls-1,.cls-2{fill:none;}.cls-2{stroke:#23b169;stroke-linecap:round;stroke-miterlimit:10;stroke-width:2px;}.cls-3{fill:#68c76f;}</style></defs><rect class="cls-1" width="40" height="40" transform="translate(40 40) rotate(-180)"/><path class="cls-2" d="M32.108,7.45,12.932,26.626c-3.23,3.229-4.086,7.609-1.913,9.782"/><path class="cls-3" d="M27.471,34.593a9.409,9.409,0,0,0-5.016-7.762,9.408,9.408,0,0,0-9.231-.463A9.409,9.409,0,0,0,18.24,34.13,9.408,9.408,0,0,0,27.471,34.593Z"/><path class="cls-3" d="M5,12.121a9.409,9.409,0,0,1,7.762,5.016,9.408,9.408,0,0,1,.463,9.231,9.409,9.409,0,0,1-7.762-5.016A9.408,9.408,0,0,1,5,12.121Z"/><path class="cls-3" d="M31.522,24.188a7.528,7.528,0,0,0-5.484-4.959,7.525,7.525,0,0,0-7.228,1.553,7.528,7.528,0,0,0,5.483,4.96A7.526,7.526,0,0,0,31.522,24.188Z"/><path class="cls-3" d="M15.4,8.07a7.526,7.526,0,0,1,4.96,5.484,7.525,7.525,0,0,1-1.553,7.228A7.526,7.526,0,0,1,13.85,15.3,7.527,7.527,0,0,1,15.4,8.07Z"/><path class="cls-3" d="M34.863,15.257a6.02,6.02,0,0,0-5.264-2.7,6.023,6.023,0,0,0-5.264,2.7,6.023,6.023,0,0,0,5.264,2.7A6.02,6.02,0,0,0,34.863,15.257Z"/><path class="cls-3" d="M24.335,4.729a6.02,6.02,0,0,1,2.7,5.264,6.023,6.023,0,0,1-2.7,5.264,6.023,6.023,0,0,1-2.7-5.264A6.02,6.02,0,0,1,24.335,4.729Z"/><path class="cls-3" d="M35.847,3.745A6.017,6.017,0,0,0,30.218,5.56,6.019,6.019,0,0,0,28.4,11.189a6.019,6.019,0,0,0,5.629-1.815A6.017,6.017,0,0,0,35.847,3.745Z"/></svg>
